X:246
T:Pollonesse ur Matthias Silvius Svenonis notbok
T:(SmM I:246)
R:Polska
B:Småländsk Musiktradition
S:Matthias Silvius Svenonis
O:Kalmar, Småland
N:1721
M:3/4
L:1/8
K:Ddor
d2 ^cB cA|da g4|f2 ed e^c|dd d4:| |:fa c2f2|ef g2 e2|
fa A2d2|^cd e2c2|d2 ^cB cA|da g4|f2 ed e^c|dd d4:|

